X: 35763
T: Sally Ann's A Gal I Like
R: reel
M: 4/4
K: Amixolydian
|:B/c/d|e3f efed|cdef g2 ag|f2 de fded|BAAB defd|
e3f efed|cdef g2 ag|f2 de fded|BAAB A2:|
|:B/c/d|efec ABcA|BABc defd|efec ABcA|BA^GF E2 cd|
efec ABcA|BABc dfeg|f2 ef gfed|BAAB A2:|

